X: 1
T: The North Star
M: 6/8
L: 1/8
K: Gmaj
"G" G2D GB/2c/2d|cBG dBG|"C"~E3 dBG|"D"F2d cde|
"G" G2D GB/2c/2d|cBG dBG|"C"EGd "D"~F2d|1"G"~G3 dBA:|2"G"~G3 GAB||
|:"Em"G2F G2d|ABF G2D|"A"EFG Adc-|"C"cBG ADB|
[1"Em"G2F G2d|ABF G2D|"D"EFG ADF|G2B DAD:|
[2"Em"G2F G2d|dcB G2D|"D"EFG ADF|"G"G2z dBA|] 
